X:1
T:4 Songs, Op. 51
T:Juni / June
T:4 Songs, Op. 51
T:Amy Marcy Beach
T:3. Juni June 
T:Erich Jansen English text by Isidora Martinez 
T:Creative Commons copyright waiver (CC0 1.0 Universal)
T:Creative Commons copyright waiver (CC0 1.0 Universal)
T:Creative Commons copyright waiver (CC0 1.0 Universal)
T:Creative Commons copyright waiver (CC0 1.0 Universal)
C:Amy Beach
Z:Erich Jansen
Z:Creative Commons copyright waiver (CC0 1.0 Universal)
%%score 1 { 2 | 3 }
L:1/8
M:9/8
K:F
V:1 treble nm="Voice"
V:2 treble nm="Piano"
V:3 bass 
V:1
 z9 | z2 z z2 z z2!mf! A | d2 c (B3 A2) ^F | z9 | z9 | z9 | z9 | z9 | z9 | z9 | z9 | z9 | z9 | z9 | %14
w: |O|Ju- ni- ta- ge im||||||||||||
w: |O|sun- ny days _ of||||||||||||
 z9 | z9 | z9 | z9 | z9 | z9 | z9 | z9 | z9 | z9 | z9 | z9 | z9 | z9 | z9 | z9 | z9 | z9 | z9 | %33
w: |||||||||||||||||||
w: |||||||||||||||||||
 z9 | z9 | z9 | z9 | z9 | z9 | z9 | z9 | z9 | z9 | z9 | z9 | z9 | z9 | z9 | z9 |] %49
w: ||||||||||||||||
w: ||||||||||||||||
V:2
!f! z [Bda][Bda] z [FBf][FBf] [Fe]!>(![Ff][Fe] | z [Fd][Fd] z [DFB][DFB] z [B,FA]!>)![B,FA] | z9 | %3
 z9 | z9 | z9 | z9 | z9 | z9 | z9 | z9 | z9 | z9 | z9 | z9 | z9 | z9 | z9 | z9 | z9 | z9 | z9 | %22
 z9 | z9 | z9 | z9 | z9 | z9 | z9 | z9 | z9 | z9 | z9 | z9 | z9 | z9 | z9 | z9 | z9 | z9 | z9 | %41
 z9 | z9 | z9 | z9 | z9 | z9 | z9 | z9 |] %49
V:3
!ped! !arpeggio![C,G,F]3 (D3 C3!ped-up! | B,3 G,3) G,,3 | z9 | z9 | z9 | z9 | z9 | z9 | z9 | z9 | %10
 z9 | z9 | z9 | z9 | z9 | z9 | z9 | z9 | z9 | z9 | z9 | z9 | z9 | z9 | z9 | z9 | z9 | z9 | z9 | %29
 z9 | z9 | z9 | z9 | z9 | z9 | z6 z[K:treble] z z | z9 |[K:bass] z9 | z9 | z9 | z9 | z9 | z9 | z9 | %44
 z6[K:treble] z2 z |[K:bass] z3[K:treble] z2 z4 |[K:bass] z9 | z9 | z9 |] %49

